static/assets/images/flags/4x3/gb.svg

<svg height="480" width="640" xmlns="http://www.w3.org/2000/svg" xmlns:xlink="http://www.w3.org/1999/xlink"><clipPath id="a"><path d="m-85.3 0h682.6v512h-682.6z"/></clipPath><g clip-path="url(#a)" transform="matrix(.94 0 0 .94 80 0)"><g stroke-width="1pt"><path d="m-256 0h1024v512h-1024z" fill="#006"/><path d="m-256 0v57.2l909.5 454.8h114.5v-57.2l-909.5-454.8zm1024 0v57.2l-909.5 454.8h-114.5v-57.2l909.5-454.8z" fill="#fff"/><path d="m170.7 0v512h170.6v-512zm-426.7 170.7v170.6h1024v-170.6z" fill="#fff"/><path d="m-256 204.8v102.4h1024v-102.4zm460.8-204.8v512h102.4v-512zm-460.8 512 341.3-170.7h76.4l-341.4 170.7zm0-512 341.3 170.7h-76.3l-265-132.5zm606.4 170.7 341.3-170.7h76.3l-341.3 170.7zm417.6 341.3-341.3-170.7h76.3l265 132.5z" fill="#c00"/></g></g></svg>

<svg xmlns="http://www.w3.org/2000/svg" id="flag-icon-css-gb" width="640" height="480">
  <defs>
    <clipPath id="a">
      <path fill-opacity=".7" d="M-85.3 0h682.6v512H-85.3z"/>
    </clipPath>
  </defs>
  <g clip-path="url(#a)" transform="translate(80) scale(.94)">
    <g stroke-width="1pt">
      <path fill="#006" d="M-256 0H768v512H-256z"/>
      <path fill="#fff" d="M-256 0v57.2L653.5 512H768v-57.2L-141.5 0H-256zM768 0v57.2L-141.5 512H-256v-57.2L653.5 0H768z"/>
      <path fill="#fff" d="M170.7 0v512h170.6V0H170.7zM-256 170.7v170.6H768V170.7H-256z"/>
      <path fill="#c00" d="M-256 204.8v102.4H768V204.8H-256zM204.8 0v512h102.4V0H204.8zM-256 512L85.3 341.3h76.4L-179.7 512H-256zm0-512L85.3 170.7H9L-256 38.2V0zm606.4 170.7L691.7 0H768L426.7 170.7h-76.3zM768 512L426.7 341.3H503l265 132.5V512z"/>
    </g>
  </g>
</svg>
